src/assets/img/icons/duotone-icons/Media/Pause.svg

<?xml version="1.0" encoding="UTF-8"?>
<svg width="24px" height="24px" viewBox="0 0 24 24" version="1.1" xmlns="http://www.w3.org/2000/svg" xmlns:xlink="http://www.w3.org/1999/xlink">
    <!-- Generator: Sketch 52.2 (67145) - http://www.bohemiancoding.com/sketch -->
    <title>Stockholm-icons / Media / Pause</title>
    <desc>Created with Sketch.</desc>
    <g id="Stockholm-icons-/-Media-/-Pause" stroke="none" stroke-width="1" fill="none" fill-rule="evenodd">
        <rect id="bound" x="0" y="0" width="24" height="24"></rect>
        <path d="M8,6 L10,6 C10.5522847,6 11,6.44771525 11,7 L11,17 C11,17.5522847 10.5522847,18 10,18 L8,18 C7.44771525,18 7,17.5522847 7,17 L7,7 C7,6.44771525 7.44771525,6 8,6 Z M14,6 L16,6 C16.5522847,6 17,6.44771525 17,7 L17,17 C17,17.5522847 16.5522847,18 16,18 L14,18 C13.4477153,18 13,17.5522847 13,17 L13,7 C13,6.44771525 13.4477153,6 14,6 Z" id="Combined-Shape" fill="#335EEA"></path>
    </g>
</svg>

<svg width="24" height="24" viewBox="0 0 24 24" xmlns="http://www.w3.org/2000/svg"><g fill="none" fill-rule="evenodd"><path d="M0 0h24v24H0z"/><path d="M8 6h2a1 1 0 011 1v10a1 1 0 01-1 1H8a1 1 0 01-1-1V7a1 1 0 011-1zm6 0h2a1 1 0 011 1v10a1 1 0 01-1 1h-2a1 1 0 01-1-1V7a1 1 0 011-1z" fill="#335EEA"/></g></svg>
